static/assets/images/exchanges/alien-base.svg

<svg xmlns="http://www.w3.org/2000/svg" fill="none" viewBox="0 0 287 256"><path fill="#0C6CF3" d="M255.345 255.821c-38.271-4.188-72.179-13.139-99.573-27.603a9.5 9.5 0 0 1-3.509-3.15 9.59 9.59 0 0 1-.834-9.116 9.56 9.56 0 0 1 2.879-3.738c26.59-20.825 42.217-47.651 42.217-79.414 0-25.646-14.206-46.442-53.022-46.442S90.481 107.154 90.481 132.8c0 31.763 15.641 58.618 42.217 79.414a9.55 9.55 0 0 1 2.878 3.738 9.59 9.59 0 0 1-.833 9.116 9.54 9.54 0 0 1-3.509 3.15c-27.394 14.435-61.302 23.415-99.573 27.603-23.26 2.548-39.49-22.667-27.738-42.974L118.721 14.313c11.049-19.084 38.5-19.084 49.535 0l114.827 198.534c11.738 20.307-4.478 45.522-27.738 42.974m-104.136-80.234c.315-4.044 1.736-13.039 8.523-19.026 6.903-6.131 17.364-7.311 21.769-7.541a1.914 1.914 0 0 1 2.009 2.015c-.301 4.044-1.736 13.039-8.509 19.04-6.917 6.117-17.392 7.311-21.783 7.541a1.9 1.9 0 0 1-1.89-1.236 1.9 1.9 0 0 1-.119-.793m-15.412 0a1.9 1.9 0 0 1-.551 1.462 1.88 1.88 0 0 1-1.458.553c-4.405-.216-14.866-1.439-21.783-7.527-6.773-6.001-8.193-14.996-8.509-19.026a1.905 1.905 0 0 1 1.217-1.909 1.9 1.9 0 0 1 .792-.12c4.405.216 14.866 1.439 21.783 7.541 6.773 5.987 8.193 14.982 8.509 19.026"/></svg>

<svg width="287" height="256" viewBox="0 0 287 256" fill="none" xmlns="http://www.w3.org/2000/svg">
<path d="M255.345 255.821C217.074 251.633 183.166 242.682 155.772 228.218C154.358 227.479 153.151 226.396 152.263 225.068C151.375 223.739 150.833 222.209 150.687 220.617C150.542 219.024 150.797 217.42 151.429 215.952C152.062 214.484 153.052 213.199 154.308 212.214C180.898 191.389 196.525 164.563 196.525 132.8C196.525 107.154 182.319 86.358 143.503 86.358C104.687 86.358 90.4808 107.154 90.4808 132.8C90.4808 164.563 106.122 191.418 132.698 212.214C133.954 213.199 134.944 214.484 135.576 215.952C136.209 217.42 136.464 219.024 136.319 220.617C136.173 222.209 135.631 223.739 134.743 225.068C133.854 226.396 132.648 227.479 131.234 228.218C103.84 242.653 69.932 251.633 31.6613 255.821C8.40045 258.369 -7.82907 233.154 3.92334 212.847L118.721 14.3126C129.77 -4.77088 157.221 -4.77088 168.256 14.3126L283.083 212.847C294.821 233.154 278.605 258.369 255.345 255.821ZM151.209 175.587C151.524 171.543 152.945 162.548 159.732 156.561C166.635 150.43 177.096 149.25 181.501 149.02C181.769 149.005 182.036 149.047 182.287 149.144C182.537 149.24 182.764 149.388 182.954 149.578C183.143 149.768 183.291 149.996 183.387 150.247C183.482 150.498 183.524 150.766 183.51 151.035C183.209 155.079 181.774 164.074 175.001 170.075C168.084 176.192 157.609 177.386 153.218 177.616C152.949 177.631 152.68 177.589 152.428 177.492C152.177 177.395 151.949 177.245 151.759 177.054C151.57 176.862 151.422 176.632 151.328 176.38C151.233 176.127 151.192 175.857 151.209 175.587ZM135.797 175.587C135.814 175.856 135.774 176.126 135.679 176.378C135.583 176.63 135.436 176.859 135.246 177.049C135.056 177.24 134.828 177.388 134.576 177.483C134.325 177.578 134.056 177.619 133.788 177.602C129.383 177.386 118.922 176.163 112.005 170.075C105.232 164.074 103.812 155.079 103.496 151.049C103.477 150.779 103.516 150.508 103.61 150.254C103.704 150 103.851 149.769 104.041 149.577C104.232 149.385 104.461 149.236 104.713 149.14C104.965 149.044 105.235 149.003 105.505 149.02C109.91 149.236 120.371 150.459 127.288 156.561C134.061 162.548 135.481 171.543 135.797 175.587Z" fill="#0C6CF3"/>
</svg>
